X: 25052
T: Maids Of Ardagh, The
R: polka
M: 2/4
K: Amixolydian
|:FA BA|dA/d/ f2|fe/f/ gc|ed BA|
FA BA|dA/d/ f2|fe/f/ gc|ed d2:|
|:ef/e/ ce|fe a2|ef/e/ ce|fe c/B/A|
ef/e/ ce|fe a2|ef/e/ dB|BA A2:|

